img/header__help.svg

<svg width="30" height="30" viewBox="0 0 30 30" fill="none" xmlns="http://www.w3.org/2000/svg">
<g clip-path="url(#clip0)">
<path d="M14.9994 0C14.1159 0 13.2378 0.117278 12.3895 0.348679C12.0599 0.438555 11.8656 0.778636 11.9555 1.1082C12.0454 1.43783 12.3858 1.63218 12.715 1.54218C13.4572 1.33973 14.2258 1.23711 14.9994 1.23711C19.7744 1.23711 23.6592 5.12188 23.6592 9.89687C23.6592 14.3337 21.8899 16.0666 20.3291 17.5955C19.3125 18.5911 18.3463 19.5384 18.1352 21.0309H11.8636C11.6525 19.5384 10.6864 18.5911 9.66976 17.5955C8.1089 16.0666 6.33965 14.3337 6.33965 9.89687C6.33965 7.85174 7.0662 5.8668 8.38552 4.30761C8.60615 4.04683 8.57368 3.65652 8.31284 3.43588C8.05211 3.21518 7.66175 3.24772 7.44111 3.5085C5.93307 5.29074 5.10254 7.55954 5.10254 9.89687C5.10254 14.8537 7.15496 16.864 8.80415 18.4793C9.74312 19.399 10.4558 20.0976 10.6288 21.1426C9.84326 21.4161 9.27778 22.1637 9.27778 23.0413C9.27778 23.934 9.86281 24.6922 10.6695 24.9538V26.2887H10.515C10.1734 26.2887 9.8964 26.5657 9.8964 26.9073C9.8964 27.2489 10.1734 27.5259 10.515 27.5259H10.6695V28.1444C10.6695 29.1676 11.502 30.0001 12.5252 30.0001H17.4736C18.4968 30.0001 19.3293 29.1676 19.3293 28.1444V27.5259H19.4839C19.8255 27.5259 20.1025 27.2489 20.1025 26.9073C20.1025 26.5657 19.8255 26.2887 19.4839 26.2887H19.3293V24.9538C20.136 24.6923 20.721 23.934 20.721 23.0413C20.721 22.1637 20.1556 21.4161 19.37 21.1426C19.5431 20.0976 20.2557 19.399 21.1947 18.4793C22.8438 16.864 24.8963 14.8537 24.8963 9.89687C24.8963 4.43974 20.4566 0 14.9994 0ZM18.0922 28.1443C18.0922 28.4854 17.8147 28.7629 17.4736 28.7629H12.5252C12.1841 28.7629 11.9066 28.4854 11.9066 28.1443V27.5258H18.0922V28.1443ZM11.9066 26.2887V25.0516H18.0922V26.2887H11.9066ZM18.7107 23.8144H11.2881C10.8617 23.8144 10.5149 23.4676 10.5149 23.0412C10.5149 22.6148 10.8617 22.268 11.2881 22.268H18.7107C19.1371 22.268 19.4839 22.6149 19.4839 23.0412C19.4839 23.4676 19.1371 23.8144 18.7107 23.8144Z" fill="black"/>
<path d="M2.62808 10.5154C2.96965 10.5154 3.24663 10.2385 3.24663 9.89688C3.24663 9.55525 2.96965 9.27832 2.62808 9.27832H1.20547C0.863903 9.27832 0.586914 9.55525 0.586914 9.89688C0.586914 10.2385 0.863903 10.5154 1.20547 10.5154H2.62808Z" fill="black"/>
<path d="M3.9756 15.5468L1.51153 16.9695C1.21568 17.1403 1.1143 17.5186 1.28514 17.8145C1.39976 18.0129 1.60759 18.1239 1.82143 18.1239C1.92634 18.1239 2.03273 18.0971 2.13009 18.0409L4.59416 16.6182C4.89001 16.4474 4.99139 16.0691 4.82055 15.7732C4.64977 15.4774 4.27152 15.376 3.9756 15.5468Z" fill="black"/>
<path d="M28.4858 16.9695L26.0217 15.5468C25.7258 15.376 25.3475 15.4774 25.1767 15.7732C25.0059 16.0691 25.1073 16.4474 25.4031 16.6182L27.8672 18.0409C27.9646 18.0972 28.0709 18.1239 28.1759 18.1239C28.3896 18.1239 28.5976 18.0129 28.7121 17.8145C28.883 17.5187 28.7816 17.1404 28.4858 16.9695Z" fill="black"/>
<path d="M28.7931 9.27832H27.3705C27.0289 9.27832 26.752 9.55525 26.752 9.89688C26.752 10.2385 27.0289 10.5154 27.3705 10.5154H28.7931C29.1347 10.5154 29.4117 10.2385 29.4117 9.89688C29.4117 9.55525 29.1347 9.27832 28.7931 9.27832Z" fill="black"/>
<path d="M25.713 4.3299C25.8179 4.3299 25.9243 4.30311 26.0217 4.24689L28.4858 2.82421C28.7816 2.65343 28.883 2.27512 28.7121 1.97927C28.5413 1.68347 28.1631 1.58209 27.8672 1.75288L25.4031 3.17555C25.1073 3.34633 25.0059 3.72464 25.1767 4.0205C25.2913 4.21899 25.4992 4.3299 25.713 4.3299Z" fill="black"/>
<path d="M4.59416 3.17562L2.13009 1.75294C1.83411 1.58204 1.45593 1.68348 1.28514 1.97933C1.1143 2.27519 1.21568 2.6535 1.51153 2.82428L3.9756 4.24695C4.07303 4.30318 4.17936 4.32996 4.28426 4.32996C4.49803 4.32996 4.70599 4.219 4.82055 4.02056C4.99139 3.72471 4.89001 3.3464 4.59416 3.17562Z" fill="black"/>
<path d="M17.0243 13.4434C17.2878 13.0474 17.8009 12.5165 18.268 12.0493C18.702 11.6153 19.0426 11.1065 19.2806 10.5367C19.5182 9.96795 19.6387 9.36926 19.6387 8.75732C19.6387 7.51829 19.1561 6.35331 18.2798 5.477C17.4035 4.6007 16.2385 4.11816 14.9995 4.11816C13.7605 4.11816 12.5956 4.60076 11.7193 5.477C10.8429 6.35331 10.3604 7.51829 10.3604 8.75732C10.3604 9.78053 11.1928 10.613 12.216 10.613C13.2392 10.613 14.0717 9.78053 14.0717 8.75732C14.0717 8.50934 14.1682 8.27633 14.3434 8.10116C14.5186 7.92598 14.7516 7.82949 14.9995 7.82949C15.2474 7.82949 15.4804 7.92598 15.6557 8.10116C15.8308 8.27633 15.9273 8.50934 15.9273 8.75732C15.9273 8.88326 15.9041 9.00282 15.8582 9.11268C15.8114 9.22458 15.7393 9.32973 15.6439 9.42523C14.8005 10.2686 14.3056 10.8394 13.9358 11.3953C13.3955 12.2072 13.1438 12.9777 13.1438 13.8198C13.1438 14.2947 13.3234 14.7283 13.6179 15.0569C13.3233 15.3856 13.1438 15.8194 13.1438 16.2945C13.1438 17.3177 13.9763 18.1502 14.9995 18.1502C16.0227 18.1502 16.8552 17.3177 16.8552 16.2945V16.2941C16.8552 15.8192 16.6756 15.3855 16.3811 15.0569C16.6756 14.7283 16.8552 14.2947 16.8552 13.8198C16.8552 13.7641 16.8846 13.6535 17.0243 13.4434ZM14.9658 12.0807C15.2872 11.5975 15.7371 11.0817 16.5187 10.3C16.7287 10.0899 16.8906 9.85092 16.9997 9.58958C17.109 9.32794 17.1644 9.04792 17.1644 8.75738C17.1644 8.17897 16.9392 7.63526 16.5304 7.22646C16.1216 6.8176 15.578 6.59244 14.9995 6.59244C14.421 6.59244 13.8774 6.8176 13.4686 7.22646C13.0598 7.63526 12.8346 8.17897 12.8346 8.75738C12.8346 9.09845 12.5571 9.37594 12.216 9.37594C11.8749 9.37594 11.5975 9.09845 11.5975 8.75738C11.5975 7.84879 11.9514 6.9945 12.594 6.35189C13.2366 5.70927 14.0909 5.35533 14.9995 5.35533C15.9081 5.35533 16.7624 5.70927 17.405 6.35189C18.0477 6.9945 18.4016 7.84879 18.4016 8.75738C18.4016 9.20478 18.3132 9.64303 18.1391 10.0599C17.9636 10.4802 17.7125 10.8552 17.3933 11.1746C16.6604 11.9074 16.2552 12.3661 15.9943 12.7582C15.7376 13.144 15.6181 13.4813 15.6181 13.8198C15.6181 14.1609 15.3406 14.4384 14.9995 14.4384C14.6584 14.4384 14.381 14.1609 14.381 13.8198C14.381 13.2248 14.5614 12.6884 14.9658 12.0807ZM15.6181 16.2945C15.6181 16.6356 15.3406 16.9131 14.9996 16.9131C14.6585 16.9131 14.381 16.6356 14.381 16.2941C14.381 15.953 14.6585 15.6755 14.9996 15.6755C15.3406 15.6755 15.6181 15.953 15.6181 16.2941V16.2945Z" fill="black"/>
<path d="M10.0075 2.69316C10.349 2.69316 10.626 2.41624 10.626 2.07461C10.626 1.73298 10.349 1.45605 10.0075 1.45605H10.007C9.66541 1.45605 9.38867 1.73298 9.38867 2.07461C9.38867 2.41624 9.66585 2.69316 10.0075 2.69316Z" fill="black"/>
</g>
<defs>
<clipPath id="clip0">
<rect width="30" height="30" fill="white"/>
</clipPath>
</defs>
</svg>

<svg width="30" height="30" fill="none" xmlns="http://www.w3.org/2000/svg"><g clip-path="url(#clip0)" fill="#000"><path d="M15 0a9.92 9.92 0 00-2.61.349.619.619 0 10.325 1.193 8.682 8.682 0 012.284-.305c4.775 0 8.66 3.885 8.66 8.66 0 4.437-1.77 6.17-3.33 7.699-1.017.995-1.983 1.942-2.194 3.435h-6.271c-.212-1.493-1.178-2.44-2.194-3.435-1.561-1.53-3.33-3.262-3.33-7.7 0-2.044.726-4.03 2.046-5.588a.619.619 0 10-.945-.8 9.901 9.901 0 00-2.338 6.389c0 4.957 2.052 6.967 3.701 8.582.94.92 1.652 1.619 1.825 2.664a2.013 2.013 0 00-1.351 1.898c0 .893.585 1.651 1.391 1.913v1.335h-.154a.619.619 0 000 1.237h.154v.618c0 1.024.833 1.856 1.856 1.856h4.949a1.858 1.858 0 001.855-1.856v-.618h.155a.619.619 0 000-1.237h-.155v-1.335a2.013 2.013 0 001.392-1.913c0-.877-.565-1.625-1.351-1.898.173-1.045.886-1.744 1.825-2.664 1.649-1.615 3.701-3.625 3.701-8.582C24.896 4.44 20.456 0 15 0zm3.092 28.144a.62.62 0 01-.618.619h-4.949a.62.62 0 01-.618-.619v-.618h6.185v.618zm-6.185-1.855v-1.237h6.185v1.237h-6.185zm6.804-2.475h-7.423a.774.774 0 010-1.546h7.423a.774.774 0 010 1.546zM2.628 10.515a.619.619 0 000-1.237H1.205a.619.619 0 000 1.237h1.423zm1.348 5.032l-2.464 1.422a.619.619 0 10.618 1.072l2.464-1.423a.619.619 0 10-.618-1.071zm24.51 1.423l-2.464-1.423a.619.619 0 00-.619 1.071l2.464 1.423a.615.615 0 00.845-.227.619.619 0 00-.226-.845zm.307-7.692h-1.422a.619.619 0 000 1.237h1.422a.619.619 0 100-1.237zm-3.08-4.948a.616.616 0 00.309-.083l2.464-1.423a.618.618 0 10-.619-1.071l-2.464 1.423a.619.619 0 00.31 1.154zM4.594 3.176L2.13 1.753a.618.618 0 10-.618 1.071l2.464 1.423a.616.616 0 00.845-.226.618.618 0 00-.227-.845z"/><path d="M17.024 13.443c.264-.396.777-.926 1.244-1.394a4.677 4.677 0 001.37-3.292 4.609 4.609 0 00-1.358-3.28A4.609 4.609 0 0015 4.118a4.609 4.609 0 00-3.28 1.359 4.608 4.608 0 00-1.36 3.28c0 1.024.833 1.856 1.856 1.856a1.858 1.858 0 001.856-1.856c0-.248.096-.48.271-.656A.922.922 0 0115 7.83c.248 0 .481.097.657.272a.922.922 0 01.271.656.917.917 0 01-.283.668c-.844.844-1.338 1.414-1.708 1.97-.54.812-.792 1.583-.792 2.425 0 .475.18.908.474 1.237a1.849 1.849 0 00-.474 1.237c0 1.024.832 1.856 1.855 1.856a1.858 1.858 0 001.856-1.855c0-.476-.18-.91-.474-1.238.295-.329.474-.762.474-1.237 0-.056.03-.167.17-.377zm-2.058-1.362c.321-.483.771-1 1.553-1.781a2.147 2.147 0 00.646-1.543 2.15 2.15 0 00-.635-1.53A2.15 2.15 0 0015 6.591a2.15 2.15 0 00-1.531.634 2.15 2.15 0 00-.634 1.531.62.62 0 01-1.238 0c0-.908.354-1.762.997-2.405a3.38 3.38 0 012.405-.997 3.38 3.38 0 012.406.997 3.38 3.38 0 01.734 3.708c-.175.42-.427.795-.746 1.115-.733.732-1.138 1.191-1.399 1.583-.256.386-.376.723-.376 1.062a.62.62 0 01-1.237 0c0-.595.18-1.132.585-1.74zm.652 4.213a.62.62 0 11-1.238 0 .62.62 0 011.238 0zm-5.61-13.601a.619.619 0 000-1.237h-.001a.618.618 0 100 1.237z"/></g><defs><clipPath id="clip0"><path fill="#fff" d="M0 0h30v30H0z"/></clipPath></defs></svg>
